!!!ONB: MCCC : IFC0056_01 : Extracted Monophonic Melody
!!!COM: Chopin, Frédéric
!!!OPR: Mazurkas
!!!OMV: 1
!!!SCT: Op.59
!!!ODT: 1845///
**kern
*thru
*staff1
*clefG2
*k[f#c#g#d#a#]
*B:
*M3/4
*MM144
=1
2g#
4f#
=2
8.f#
16f#
4f#
4f#
=3
8.f#
16f#
4f#
4e
=4
8.e
16e
4e
4e
=5
8.e
16e
4.e
8d[
=6
8.d]
16e
4f#
4g
=7
8.e
16f#
4g
4a
=8
8.b
16dd
2dd
=9
8.e
16e
4.e
8d[
=10
8.d]
16e
4f#
4g
=11
8.e
16f#
4g
4a
=12
2b
4dd#
=13
8ee
8cc#
4g#
4a#
=14
8f#
16r
16g#
4a#
4b
=15
8g#
16r
16a#
4b
4cc#
=16
8dd#
16r
16ff#
4ff#
4gg#
=17
8ff#
16r
16dd#
4b
4ee
=18
8dd#
16r
16b
4g#
4b
=19
8cc#
16r
16dd#
4.cc#
8b
=20
8b
16r
16g#
4g#
8a#
8g#
=21
8f#
16r
16cc#
4cc#
4dd#
=22
4b
2g#
=23
2g#
4f#
=24
8.f#
16f#
4f#
4f#
=25
8.f#
16f#
4f#
4e
=26
8.e
16e
4e
4e
=27
8.e
16e
4.e
8d[
=28
8.d]
16e
4f#
4g
=29
8.e
16f#
4g
4a
=30
8.b
16dd
2dd
=31
8.e
16e
4.e
8d[
=32
8.d]
16e
4f#
4g
=33
8.e
16f#
4g
4a
=34
8.b
16cc#
4cc##
4dd#
=35
8ee
8cc#
4g#
4a#
=36
8f#
16r
16g#
4a#
4b
=37
8g#
16r
16a#
4b
4cc#
=38
8dd#
16r
16ff#
4ff#
4gg#
=39
8ff#
16r
16dd#
4b
4ee
=40
8dd#
16r
16b
4g#
4b
=41
8cc#
16r
16dd#
4.cc#
8b
=42
8b
16r
16g#
4g#
8a#
8g#
=43
8f#
16r
16cc#
4cc#
4dd#
=44
4b
2a
=45
*MM200
*k[b-e-a-]
8b-
8cc
8b-
8ff
8ee-
8aa-
=46
8gg
8ccc
8bb-
8ddd
8eee-
8ccc
=47
8bb-
8ccc
8bb-
8gg
8aa-
8ff
=48
8gg
8dd
8ee-
8dd
8ee-
8cc
=49
8b-
8cc
8b-
8ff
8ee-
8aa-
=50
8gg
8ccc
8bb-
8ddd
8eee-
8ccc
=51
8bb-
8ccc
8bb-
8gg
8aa-
8ff
=52
8gg
8dd
8ee-
8cc
8dd-
8f
=53
8e-
8f
8e-
8b-
8a-
8dd-
=54
8cc
8ff
8ee-
8gg
8aa-
8ff
=55
8ee-
8ff
8ee-
8cc
8dd-
8b-
=56
8cc
8g
8a-
8g
8a-
8f
=57
8e-
8f
8e-
8b-
8a-
8dd-
=58
8cc
8ff
8ee-
8gg
8aa-
8ff
=59
8ee-
8ff
8ee-
8cc
8dd-
8b-
=60
8cc
8g
8a-
8g
8f
8cc
=61
8b-
8cc
8b-
8ff
8ee-
8aa-
=62
8gg
8ccc
8bb-
8ddd
8eee-
8ccc
=63
8bb-
8ccc
8bb-
8gg
8aa-
8ff
=64
8gg
8dd
8ee-
8dd
8ee-
8cc
=65
8b-
8cc
8b-
8ff
8ee-
8aa-
=66
8gg
8ccc
8bb-
8ddd
8eee-
8ccc
=67
8bb-
8ccc
8bb-
8gg
8aa-
8ff
=68
8gg
8dd
8ee-
8cc
8dd-
8f
=69
8e-
8f
8e-
8b-
8a-
8dd-
=70
8cc
8ff
8ee-
8gg
8aa-
8ff
=71
8ee-
8ff
8ee-
8cc
8dd-
8b-
=72
8cc
8g
8a-
8g
8a-
8f
=73
8e-
8f
8e-
8b-
8a-
8dd-
=74
8cc
8ff
8ee-
8gg
8aa-
8ff
=75
8ee-
8cc
8dd-
8ff
8ee-
8cc
=76
8a-
8b-
8dd-
8cc
8a-
8e-
=77
8f-
8a-
8e-
8c
8f-
8a-
=78
8e-
8c
8f-
8a-
8e-
8c
=79
8f-
8a-
8e-
8c-
8f-
8a-
=80
8e-
8c-
8f-
8a-
8e-
8c-
=81
*MM144
*k[f#c#g#d#a#]
2g#
4f#
=82
8.f#
16f#
4f#
4f#
=83
8.f#
16f#
4f#
4e
=84
8.e
16e
4e
4e
=85
8.e
16e
4.e
8d[
=86
8.d]
16e
4f#
4g
=87
8.e
16f#
4g
4a
=88
8.b
16dd
2dd
=89
8.e
16e
4.e
8d[
=90
8.d]
16e
4f#
4g
=91
8.e
16f#
4g
4a
=92
2.b
=93
8ee
8cc#
4g#
4a#
=94
8f#
16r
16g#
4a#
4b
=95
8g#
16r
16a#
4b
4cc#
=96
8dd#
16r
16ff#
4ff#
4gg#
=97
8ff#
16r
16dd#
4b
4ee
=98
8dd#
16r
16b
4g#
4b
=99
8cc#
16r
16dd#
4.cc#
8b
=100
8b
16r
16g#
4g#
8a#
8g#
=101
8f#
16r
16cc#
4cc#
4dd#
=102
2b
[4a
=103
*MM200
*k[f#]
8a]
8e
8d
8a
8g
8cc
=104
8b
8ee
8dd
8ff#
8gg
8ee
=105
8dd
8ee
8dd
8b
8cc
8a
=106
8b
8f#
8g
8f#
8g
8e
=107
8d
8e
8d
8a
8g
8cc
=108
8b
8ee
8dd
8ff#
8gg
8ee
=109
8dd
8ee
8dd
8b
8cc
8a
=110
8b
8f#
8g
8f#
8e
8b
=111
8a
8b
8a
8ee
8dd
8gg
=112
8ff#
8bb
8aa
8ccc#
8ddd
8bb
=113
8aa
8bb
8aa
8ff#
8gg
8ee
=114
8ff#
8cc#
8dd
8cc#
8dd
8b
=115
8a
8b
8a
8ee
8dd
8gg
=116
8ff#
8bb
8aa
8ccc#
8ddd
8bb
=117
8aa
8bb
8aa
8ff#
8gg
8ee
=118
8ff#
8dd
8ee
8b
8cc
8e
=119
8d
8e
8d
8a
8g
8cc
=120
8b
8ee
8dd
8ff#
8gg
8ee
=121
8dd
8ee
8dd
8b
8cc
8a
=122
8b
8f#
8g
8f#
8g
8e
=123
8d
8e
8d
8a
8g
8cc
=124
8b
8ee
8dd
8ff#
8gg
8ee
=125
8dd
8ee
8dd
8b
8cc
8a
=126
8b
8f#
8g
8f#
8e
8b
=127
8a
8b
8a
8ee
8dd
8gg
=128
8ff#
8bb
8aa
8ccc#
8ddd
8bb
=129
8aa
8bb
8aa
8ff#
8gg
8ee
=130
8ff#
8cc#
8dd
8cc#
8dd
8b
=131
8a
8b
8a
8ee
8dd
8gg
=132
8ff#
8bb
8aa
8ccc#
8ddd
8bb
=133
8aa
8ff#
8gg
8bb
8aa
8ff#
=134
8dd
8ee
8gg
8ff#
8dd
8a
=135
8b-
8dd
8a
8f#
8b-
8dd
=136
8a
8f#
8b-
8dd
8a
8f#
=137
8a
8dd-
8a-
8f
8a
8dd-
=138
8a-
8f
8a
8dd-
8a-
8f
=139
8a-
8cc
8g
8e
8g
8b
=140
8f#
8d#
8f#
8b-
8f
8d
=141
8f
8a
8e
8c#
8e
8g#
=142
8d#
8B#
8e
8g#
8d#
8B
=143
*MM144
*k[f#c#g#d#a#]
2g#
4f#
=144
8.f#
16f#
4f#
4f#
=145
8.f#
16f#
4f#
4e
=146
8.e
16e
4e
4e
=147
8.e
16e
4.e
8d[
=148
8.d]
16e
4f#
4g
=149
8.e
16f#
4g
4a
=150
8.b
16dd
2dd
=151
8.e
16e
4.e
8d[
=152
8.d]
16e
4f#
4g
=153
8.e
16f#
4g
4a
=154
8.b
16cc#
4cc##
4dd#
=155
8.ee
16cc#
4g#
4a#
=156
8f#
16r
16g#
4a#
4b
=157
8g#
16r
16a#
4b
4cc#
=158
8dd#
16r
16ff#
4ff#
4gg#
=159
8ff#
16r
16dd#
4b
4ee
=160
8dd#
16r
16b
4g#
4b
=161
8cc#
16r
16dd#
4.cc#
8b
=162
8b
16r
16g#
4g#
8a#
8g#
=163
8f#
16r
16cc#
4cc#
4ff#
=164
8ee#
8ff#
4gg#
4ff#
=165
8bb
8ff#
4dd#
4cc#
=166
8b
8a#
4b
4ff#
=167
8ee#
8cc##
4b
8a#
8g#
=168
8f#
8e#
4f#
4cc#
=169
8b
8f#
4r
4r
=170
8B
8d#
4f#
8g#
8f#
=171
8e#
8g#
4b
8a#
8g#
=172
8f#
8a#
8cc#
8ee
8dd#
8cc#
=173
8dd#
16r
16b
4dd#
4ee
=174
8f#
16r
16a#
8cc#
8ee
8dd#
8cc#
=175
8dd#
16r
16b
4dd#
4ee
=176
8f#
16r
16a#
8cc#
8ee
8gg#
8ff#
=177
8dd#
16r
16b
4ff#
4gg#
=178
8ff#
16r
16dd#
4ff#
4gg#
=179
8ff#
16r
16dd#
4ff#
4gg#
=180
8ff#
16r
16gg#
4ff#
4gg#
=181
8ff#
16r
16ff#
4bb
4aa#
=182
8gg#
16r
16ff##
4gg#
4aa#
=183
8ff#
16r
16ee#
4ff#
4gg#
=184
8ee
16r
16cc#
4ee
8dd#
8cc#
=185
8b
16r
16dd#
4gg#
4ff#
=186
8ee
16r
16dd#
4ee
8ff#
8ee
=187
8dd#
16r
16cc##
4dd#
4ee
=188
8cc#
16r
16g#
4ee
8dd#
8cc#
=189
8dd#
16r
16ff#
4bb
4aa#
=190
8gg#
16r
16ff##
4gg#
4aa#
=191
8ff#
16r
16ee#
4ff#
4gg#
=192
8ee
16r
16cc#
4ee
8dd#
8cc#
=193
8b
16r
16dd#
4gg#
4ff#
=194
8ee
16r
16dd#
4ee
8ff#
8ee
=195
8dd#
16r
16cc##
4dd#
4ee
=196
8cc#
16r
16g#
4ee
8dd#
8cc#
=197
8dd#
16r
16b
4dd#
4ee
=198
8f#
16r
16a#
8cc#
8ee
8dd#
8cc#
=199
8dd#
8b
8dd#
8r
4ee
=200
8f#
16r
16a#
8cc#
8ee
8dd#
8cc#
=201
8dd#
16r
16b
4dd#
4bb
=202
8dd#
16r
16b
4dd#
4fff#
=203
4b
4bbb
4r
=204
8d#
8r
2d#
==
*-
